X: 15
T: WICKED WILLIE
C: Andrew Rankine 1976?
R: reel
B: "The Complete Andrew Rankine Collection of Scottish Country Dance Tunes" p.18
Z: 2017 John Chambers <jc:trillian.mit.edu>
M: C
L: 1/8
K: D
A2 |:\
"D"d2ce "Bm"dfed | "E7"dfed "A7"cee2 | "E7"c2Bd "A7"cecB | ABAG "D"FAA2 |
"D"d2ce "Bm"dfed | "E7"dfed "A7"cee2 | "E7"c2Bd "A7"cecB | Acge "D"fdd2 :|
|:\
"D"f2ef edcB | A2^GA BAGA | "A7"=G2FG AGFG | "D"A2^GA BAGA |
"D"f2ef edcB | A2^GA BAGA | "A7"=G2FG BGcG | "D"d2d2 d2-d2 :|

%%sep 1 1 500

